PortableApps/LibreOfficePortable/App/libreoffice/help/media/icon-themes/svx/res/marker-glue-unselected.svg

<svg viewBox="0 0 9 9" xmlns="http://www.w3.org/2000/svg"><path d="m4.5 0a4.5 4.5 0 0 0 -4.5 4.5 4.5 4.5 0 0 0 4.5 4.5 4.5 4.5 0 0 0 4.5-4.5 4.5 4.5 0 0 0 -4.5-4.5zm0 1a3.5 3.5 0 0 1 3.5 3.5 3.5 3.5 0 0 1 -3.5 3.5 3.5 3.5 0 0 1 -3.5-3.5 3.5 3.5 0 0 1 3.5-3.5z" fill="#dc526d" opacity=".9"/><path d="m4.5 1a3.5 3.5 0 0 0 -3.5 3.5 3.5 3.5 0 0 0 3.5 3.5 3.5 3.5 0 0 0 3.5-3.5 3.5 3.5 0 0 0 -3.5-3.5zm-.5 1h1v2h2v1h-2v2h-1v-2h-2v-1h2z" fill="#e68497" opacity=".66"/><path d="m4 2v2h-2v1h2v2h1v-2h2v-1h-2v-2z" fill="#fff" opacity=".9"/></svg>

<svg viewBox="0 0 9 9" xmlns="http://www.w3.org/2000/svg">
  <path
     d="M 4.5 0 A 4.5 4.5 0 0 0 0 4.5 A 4.5 4.5 0 0 0 4.5 9 A 4.5 4.5 0 0 0 9 4.5 A 4.5 4.5 0 0 0 4.5 0 z M 4.5 1 A 3.5 3.5 0 0 1 8 4.5 A 3.5 3.5 0 0 1 4.5 8 A 3.5 3.5 0 0 1 1 4.5 A 3.5 3.5 0 0 1 4.5 1 z "
     style="fill:#dc526d;opacity:0.9" />
  <path
     style="opacity:0.66;fill:#e68497"
     d="M 4.5 1 A 3.5 3.5 0 0 0 1 4.5 A 3.5 3.5 0 0 0 4.5 8 A 3.5 3.5 0 0 0 8 4.5 A 3.5 3.5 0 0 0 4.5 1 z M 4 2 L 5 2 L 5 4 L 7 4 L 7 5 L 5 5 L 5 7 L 4 7 L 4 5 L 2 5 L 2 4 L 4 4 L 4 2 z "
     />
  <path
     d="M 4 2 L 4 4 L 2 4 L 2 5 L 4 5 L 4 7 L 5 7 L 5 5 L 7 5 L 7 4 L 5 4 L 5 2 L 4 2 z "
     style="fill:#ffffff;opacity:0.9" />
</svg>
